src/img/twitter.svg

<svg width="14" height="14" viewBox="0 0 14 14" fill="none" xmlns="http://www.w3.org/2000/svg">
<g clip-path="url(#clip0)">
<path d="M11.9874 3.14901L11.981 3.12402C12.5317 2.79384 12.9764 2.24953 13.1743 1.62598C12.6584 1.93294 12.0547 2.16572 11.4478 2.28613C10.961 1.76751 10.3115 1.44824 9.54346 1.44824C8.0715 1.44824 6.85206 2.64001 6.85206 4.11425C6.85206 4.34018 6.87071 4.55898 6.8956 4.7506C5.59949 4.64993 4.38154 4.2294 3.26773 3.49664C2.29515 2.85692 1.77087 2.20569 1.76641 2.20014C1.62359 2.01913 1.37672 1.95695 1.16537 2.04889C0.953911 2.14083 0.830925 2.36359 0.865738 2.59141C0.877838 2.67006 1.12579 4.22464 2.06276 5.57916C1.84437 5.54514 1.71404 5.48444 1.68905 5.47204C1.50774 5.36463 1.28548 5.38437 1.12054 5.51588C0.954605 5.64819 0.895294 5.87363 0.961449 6.07527C0.982872 6.14073 1.4285 7.44011 3.05558 8.12872C2.70695 8.22929 2.3977 8.22761 2.39374 8.22761C2.39026 8.22761 2.38679 8.22751 2.38332 8.22751C2.16839 8.22751 1.97628 8.36309 1.90457 8.56641C1.83157 8.77301 1.89951 9.00311 2.07288 9.1371C2.11206 9.16736 2.84045 9.72079 4.02419 10.0005C3.6101 10.2284 3.12133 10.3656 2.56155 10.4103C1.78684 10.4722 1.16378 10.3254 1.15872 10.3241C0.901146 10.261 0.638413 10.4066 0.555398 10.6585C0.472383 10.9103 0.597253 11.1836 0.841934 11.2859C0.91523 11.3164 2.65696 12.036 4.38928 12.036C5.59176 12.036 6.49243 11.9265 7.30939 11.6809C8.32888 11.3743 9.19444 10.8516 9.95527 10.0827C10.1525 9.88335 10.1509 9.5618 9.9515 9.36453C9.75204 9.16726 9.43059 9.16894 9.23332 9.3684C7.87661 10.7395 6.31559 11.0205 4.38928 11.0205C4.34415 11.0205 4.29902 11.0199 4.25379 11.0187C4.79116 10.772 5.25196 10.4202 5.61992 9.97122C5.74261 9.82146 5.76959 9.61506 5.68925 9.43882C5.60901 9.26267 5.43555 9.14752 5.24204 9.14177C4.71181 9.12619 4.24348 9.02463 3.85766 8.89857C4.1441 8.75307 4.4231 8.54638 4.64318 8.2529C4.74891 8.11196 4.774 7.92629 4.70953 7.76235C4.64507 7.5984 4.50016 7.47958 4.32679 7.44844C3.47422 7.2952 2.90799 6.95203 2.54072 6.61422C2.74682 6.60351 2.97326 6.57227 3.21754 6.51127C3.39666 6.46644 3.5374 6.32798 3.58501 6.14955C3.63262 5.97123 3.57975 5.78099 3.44675 5.65295C2.98645 5.20941 2.65191 4.65975 2.41258 4.14122C2.49609 4.20103 2.58317 4.26123 2.67363 4.32144C3.68171 4.99141 5.33944 5.79002 7.51232 5.79002C7.67031 5.79002 7.81928 5.71613 7.91529 5.59066C8.0114 5.4653 8.04353 5.30185 8.00247 5.14931C8.00108 5.14435 7.86778 4.64378 7.86778 4.11425C7.86778 3.67695 8.04225 3.26396 8.35913 2.95144C8.6778 2.63703 9.09843 2.46386 9.54356 2.46386C9.99355 2.46386 10.3851 2.63793 10.7074 2.98119C10.94 3.20019 11.1939 3.78417 11.1939 4.13666V4.44432C11.1939 4.45503 11.195 4.46961 11.1976 4.48687C11.1954 4.50631 11.1939 4.52595 11.1939 4.54589C11.1939 5.70026 10.9803 6.72798 10.5589 7.60038C10.4369 7.853 10.5428 8.15659 10.7953 8.27859C10.8666 8.31291 10.9417 8.32917 11.0158 8.32917C11.2047 8.32917 11.3859 8.22344 11.4734 8.04214C11.9619 7.03078 12.2096 5.85449 12.2096 4.54589C12.2096 4.52654 12.2082 4.5075 12.2061 4.48876C12.2085 4.4713 12.2096 4.45622 12.2096 4.44432V4.08886C12.7313 3.71206 13.173 3.20316 13.5299 2.66699C13.5298 2.66699 12.5937 3.11053 11.9874 3.14901Z" fill="#D1C1EC"/>
</g>
<defs>
<clipPath id="clip0">
<rect width="13" height="13" fill="white" transform="translate(0.529785 0.229492)"/>
</clipPath>
</defs>
</svg>

<svg width="14" height="14" fill="none" xmlns="http://www.w3.org/2000/svg"><g clip-path="url(#a)"><path d="m11.987 3.149-.006-.025c.55-.33.995-.874 1.193-1.498-.516.307-1.12.54-1.726.66a2.564 2.564 0 0 0-1.905-.838c-1.471 0-2.69 1.192-2.69 2.666 0 .226.018.445.043.637a7.599 7.599 0 0 1-3.628-1.254C2.295 2.857 1.77 2.206 1.766 2.2a.508.508 0 0 0-.9.391c.012.08.26 1.634 1.197 2.988a1.345 1.345 0 0 1-.374-.107.497.497 0 0 0-.568.044.51.51 0 0 0-.16.56c.022.065.468 1.364 2.095 2.053-.35.1-.658.099-.662.099h-.01a.508.508 0 0 0-.311.91c.04.03.767.583 1.951.863-.414.227-.903.365-1.462.41a5.006 5.006 0 0 1-1.403-.087.508.508 0 0 0-.317.962c.073.03 1.815.75 3.547.75 1.203 0 2.103-.11 2.92-.355a6.115 6.115 0 0 0 2.646-1.598.508.508 0 1 0-.722-.715C7.877 10.74 6.316 11.02 4.39 11.02l-.135-.001A3.797 3.797 0 0 0 5.62 9.97a.508.508 0 0 0-.378-.83 4.926 4.926 0 0 1-1.384-.24 2.23 2.23 0 0 0 .785-.646.508.508 0 0 0-.316-.805c-.853-.153-1.419-.496-1.786-.834.206-.01.432-.042.677-.103a.508.508 0 0 0 .229-.858c-.46-.444-.795-.993-1.034-1.512a8.731 8.731 0 0 0 5.1 1.649.508.508 0 0 0 .49-.64 4.541 4.541 0 0 1-.135-1.036c0-.437.174-.85.491-1.163a1.68 1.68 0 0 1 1.185-.487c.45 0 .841.174 1.163.517.233.22.487.803.487 1.156v.307c0 .011.001.026.004.043a.524.524 0 0 0-.004.059c0 1.154-.214 2.182-.635 3.054a.508.508 0 0 0 .914.442c.489-1.011.737-2.188.737-3.496a.512.512 0 0 0-.004-.057.336.336 0 0 0 .004-.045V4.09c.521-.377.963-.886 1.32-1.422 0 0-.936.444-1.543.482Z" fill="#D1C1EC"/></g><defs><clipPath id="a"><path fill="#fff" transform="translate(.53 .23)" d="M0 0h13v13H0z"/></clipPath></defs></svg>
